X: 11
T: Battering Ram, The
Z: tziguk
S: https://thesession.org/tunes/382#setting53533
R: jig
M: 6/8
L: 1/8
K: Gmaj
|:B|dBG BAB|dBG G2B|dBG AGE|GED D2B|
dBG BAG|B/c/dB BAG|~A3 BAB|GED D2:|
|:B|deg aga|bge edB|deg aga|bge ega|
bag age|ged e/f/ge|dBG AGE|GED D2:|
|:c|B2G A2G|B2D D2c|BAG AGE|GED D2c|
B2GA2G|B/c/dB BAG|AGA BAB|GED D2:|

%-------------------- TUNE SEPARATOR --------------------%

